X:349
T:Over the Waterfall
C:Traditional - Beginner version
N:Transcribed by Mike Stangeland
R:bluegrass
L:1/8
Q:1/4=210
M:4/4
K:D
z6 de |: "D"f2 a2 gf ec | de dB A2 de | fa gf eg fe | cd [fd][fd] [f2d2] de | 
f2 a2 (3fgf eg | fe dB A2 AB | "C"[e2=c2] [e2c2] [ec]B AF |1 G2 [BG][BG] [B2G2] de :|2 G2 GG G2 FG | 
|: "D"AF DF BG DG | AB AG FE DF | A2 dB "A"cd ec | "D"dA FA D2 FG | A2 D2 (3"C"ABA GB | 
"D"AB AG FE D[AE] | [A2F2] [A2F2] [AE][AD] [D2B,2] |1 [DG,]"D"[DA,] [DA,][DB,] [D2A,2] FG :|2 [A2D2A,2] [ADA,][ADB,] [A4D4A,4] | 
z8 | 


